public/assets/img/svg/embed/help.svg

<?xml version="1.0" encoding="UTF-8" standalone="no"?>
<svg width="33px" height="41px" viewBox="0 0 33 41" version="1.1" xmlns="http://www.w3.org/2000/svg" xmlns:xlink="http://www.w3.org/1999/xlink" xmlns:sketch="http://www.bohemiancoding.com/sketch/ns">
    <!-- Generator: Sketch 3.2.2 (9983) - http://www.bohemiancoding.com/sketch -->
    <title>Fill 199</title>
    <desc>Created with Sketch.</desc>
    <defs></defs>
    <g id="UI" stroke="none" stroke-width="1" fill="none" fill-rule="evenodd" sketch:type="MSPage">
        <g id="Toolbox-Expanded" sketch:type="MSArtboardGroup" transform="translate(-1149.000000, -205.000000)" fill="#000000">
            <g id="Share-+-Fill-182-+-Fill-170-+-Fill-199" sketch:type="MSLayerGroup" transform="translate(1144.000000, 205.000000)">
                <path d="M16.3573212,11.1075107 C16.4656207,11.1954059 16.595894,11.2385687 16.7261672,11.2385687 C16.8964642,11.2385687 17.067546,11.16323 17.1844781,11.0180459 L22.4362179,4.49104046 C22.6410452,4.2375569 22.6010215,3.8671413 22.3467531,3.6630988 C22.0964087,3.46062587 21.7244235,3.49986481 21.520381,3.75256359 L16.2678564,10.2803538 C16.0630291,10.5338374 16.1038376,10.904253 16.3573212,11.1075107 L16.3573212,11.1075107 Z M18.6096364,12.9588039 C18.7085185,13.1761876 18.9219784,13.3048914 19.1464251,13.3048914 C19.2272573,13.3048914 19.3104439,13.288411 19.388137,13.2523112 L26.9227984,9.84166244 C27.2178753,9.70746527 27.3497181,9.35902347 27.2163057,9.06316185 C27.0821085,8.76651546 26.7336667,8.6354574 26.4362356,8.76965458 L18.9023589,12.1803033 C18.6064973,12.3145005 18.4746545,12.6629423 18.6096364,12.9588039 L18.6096364,12.9588039 Z M37.2865875,34.1360603 L31.1802235,28.470742 C31.1739453,28.4652486 31.1668823,28.4589704 31.1598193,28.4526921 C30.4543031,27.7911236 29.2912609,27.8248691 28.6234141,28.5272461 L25.9637987,31.3194892 C25.3705059,31.9473122 24.4876298,31.5525685 21.683615,29.4061984 C19.6965551,27.8813731 17.7495188,26.0481298 16.2003654,24.2470624 C14.676325,22.4679689 14.3090485,21.5348668 14.8426981,20.959624 L15.5639098,20.3396487 L17.8123011,18.1548245 C17.848401,18.1195094 17.8797921,18.0787009 17.9072594,18.0363229 C18.6206233,17.0475016 17.5117308,16.0461238 17.0471418,15.6537344 C17.0369397,15.6435322 17.0275223,15.6333301 17.0188897,15.623128 C17.0188897,15.623128 11.1550224,9.91621643 11.0208252,9.78515837 C11.0161166,9.7804497 11.0114079,9.7765258 11.0082688,9.77260191 C10.2980439,9.10475513 9.29195749,9.13693106 8.61155426,9.8581428 L6.58525535,12.0633713 L6.04218841,12.695903 C5.98882345,12.7665331 0.890900241,19.8876161 13.7385143,32.2690715 C21.0510833,39.3218788 26.5366873,40.8757408 29.9489056,40.8757408 C30.0776093,40.8757408 30.2039587,40.8733865 30.3263842,40.8686778 C32.555156,40.7933391 34.0077816,40.0336732 34.5524181,39.4293935 L37.2881571,36.645783 C37.632675,36.2800761 37.8202371,35.7817415 37.7982633,35.2794831 C37.7802134,34.8203875 37.5957904,34.4123025 37.2865875,34.1360603 L37.2865875,34.1360603 Z M9.47402618,10.659402 C9.591743,10.5346221 9.71966195,10.4718398 9.84993523,10.4718398 C9.96922162,10.4718398 10.0892928,10.52442 10.2023009,10.6303652 L10.2085792,10.6240869 C10.5013017,10.9230877 11.6164724,12.0092215 16.1422918,16.4134003 C16.1674047,16.4471458 16.1972263,16.4769674 16.230187,16.5044346 C16.9513988,17.1087143 16.957677,17.3284524 16.9427662,17.3590587 L15.1487618,19.1036221 C13.9409872,17.9319473 9.26135112,13.391217 8.05750041,12.2218966 L9.47402618,10.659402 L9.47402618,10.659402 Z M33.7017179,38.6171474 C33.3917302,38.959311 32.2804834,39.6240186 30.2871452,39.6922944 C27.7107164,39.7848983 22.2313907,38.8251138 14.555469,31.4215104 C4.50951537,21.7396941 5.68354449,15.1318565 6.95881007,13.4328103 L7.26565858,13.0945706 C7.85502748,13.6658896 9.52974548,15.2919513 14.2776573,19.8978182 L14.0312368,20.1097085 C12.5009181,21.7389093 14.3263136,23.868799 15.3072871,25.0130066 C16.9074512,26.8745019 18.9180545,28.7658189 20.9678968,30.3400852 C23.411698,32.2109979 25.3422539,33.690306 26.8160685,32.1309505 L26.9518353,31.9889055 C28.2019879,33.1919714 32.5245496,37.3520839 33.7699936,38.5496564 L33.7017179,38.6171474 L33.7017179,38.6171474 Z M36.4390264,35.8303978 L34.6002896,37.7146517 C30.0336617,33.3198904 28.3675762,31.717372 27.7625118,31.1366357 L29.4756839,29.3387074 C29.6977763,29.1032738 30.1003679,29.0867934 30.3420797,29.3002533 C30.3491428,29.3065315 30.355421,29.3120249 30.3616992,29.3183032 L36.4931761,35.0071648 C36.5692997,35.0754406 36.6171712,35.1923726 36.6226646,35.3289241 C36.6305124,35.5157015 36.5614519,35.7009093 36.4390264,35.8303978 L36.4390264,35.8303978 Z M13.5886215,9.21226983 C13.6419865,9.22796541 13.6953514,9.23502842 13.7495012,9.23502842 C14.0061239,9.23502842 14.2415575,9.06630097 14.3145419,8.80810874 L16.6115895,0.74921505 C16.6994848,0.43687308 16.5189856,0.11118987 16.2066437,0.0225098638 C15.8927321,-0.0661701427 15.5686185,0.115113764 15.4783689,0.426670955 L13.1821061,8.48556464 C13.0942109,8.79790661 13.2754948,9.12358982 13.5886215,9.21226983 L13.5886215,9.21226983 Z" id="Fill-199" sketch:type="MSShapeGroup"></path>
            </g>
        </g>
    </g>
</svg>

<?xml version="1.0" encoding="utf-8"?>
<!-- Generator: Adobe Illustrator 17.0.0, SVG Export Plug-In . SVG Version: 6.00 Build 0)  -->
<!DOCTYPE svg PUBLIC "-//W3C//DTD SVG 1.1//EN" "http://www.w3.org/Graphics/SVG/1.1/DTD/svg11.dtd">
<svg version="1.1" id="Layer_1" xmlns:sketch="http://www.bohemiancoding.com/sketch/ns"
	 xmlns="http://www.w3.org/2000/svg" xmlns:xlink="http://www.w3.org/1999/xlink" x="0px" y="0px" width="48px" height="48px"
	 viewBox="-7.5 -3.5 48 48" enable-background="new -7.5 -3.5 48 48" xml:space="preserve">
<title>Fill 199</title>
<desc>Created with Sketch.</desc>
<g id="UI" sketch:type="MSPage">
	<g id="Toolbox-Expanded" transform="translate(-1149.000000, -205.000000)" sketch:type="MSArtboardGroup">
		
			<g id="Share-_x2B_-Fill-182-_x2B_-Fill-170-_x2B_-Fill-199" transform="translate(1144.000000, 205.000000)" sketch:type="MSLayerGroup">
			<path id="Fill-199" sketch:type="MSShapeGroup" d="M16.357,11.108c0.108,0.088,0.239,0.131,0.369,0.131
				c0.17,0,0.341-0.075,0.458-0.221l5.252-6.527c0.205-0.253,0.165-0.624-0.089-0.828c-0.25-0.202-0.622-0.163-0.826,0.089
				l-5.253,6.528C16.063,10.534,16.104,10.904,16.357,11.108L16.357,11.108z M18.61,12.959c0.099,0.217,0.312,0.346,0.537,0.346
				c0.081,0,0.164-0.016,0.242-0.053l7.535-3.411c0.295-0.134,0.427-0.483,0.294-0.779c-0.134-0.297-0.483-0.428-0.78-0.294
				l-7.534,3.411C18.606,12.315,18.475,12.663,18.61,12.959L18.61,12.959z M37.287,34.136l-6.106-5.665
				c-0.006-0.005-0.013-0.012-0.02-0.018c-0.706-0.662-1.869-0.628-2.536,0.075l-2.66,2.792c-0.593,0.628-1.476,0.233-4.28-1.913
				c-1.987-1.525-3.934-3.358-5.483-5.159c-1.524-1.779-1.891-2.712-1.358-3.287l0.721-0.62l2.248-2.185
				c0.036-0.035,0.067-0.076,0.095-0.119c0.713-0.989-0.396-1.99-0.86-2.383c-0.01-0.01-0.02-0.02-0.028-0.031
				c0,0-5.864-5.707-5.998-5.838c-0.005-0.005-0.009-0.009-0.013-0.013c-0.71-0.668-1.716-0.636-2.397,0.086l-2.026,2.205
				l-0.543,0.633c-0.053,0.071-5.151,7.192,7.696,19.573c7.313,7.053,12.798,8.607,16.21,8.607c0.129,0,0.255-0.002,0.377-0.007
				c2.229-0.075,3.681-0.835,4.226-1.439l2.736-2.784c0.345-0.366,0.532-0.864,0.51-1.366C37.78,34.82,37.596,34.412,37.287,34.136
				L37.287,34.136z M9.474,10.659c0.118-0.125,0.246-0.188,0.376-0.188c0.119,0,0.239,0.053,0.352,0.159l0.006-0.006
				c0.293,0.299,1.408,1.385,5.934,5.789c0.025,0.034,0.055,0.064,0.088,0.091c0.721,0.604,0.727,0.824,0.713,0.855l-1.794,1.745
				c-1.208-1.172-5.887-5.712-7.091-6.882L9.474,10.659L9.474,10.659z M33.702,38.617c-0.31,0.342-1.421,1.007-3.415,1.075
				c-2.576,0.093-8.056-0.867-15.732-8.271C4.51,21.74,5.684,15.132,6.959,13.433l0.307-0.338c0.589,0.571,2.264,2.197,7.012,6.803
				l-0.246,0.212c-1.53,1.629,0.295,3.759,1.276,4.903c1.6,1.861,3.611,3.753,5.661,5.327c2.444,1.871,4.374,3.35,5.848,1.791
				l0.136-0.142c1.25,1.203,5.573,5.363,6.818,6.561L33.702,38.617L33.702,38.617z M36.439,35.83L34.6,37.715
				c-4.567-4.395-6.233-5.997-6.838-6.578l1.713-1.798c0.222-0.235,0.625-0.252,0.866-0.038c0.007,0.006,0.013,0.012,0.02,0.018
				l6.131,5.689c0.076,0.068,0.124,0.185,0.129,0.322C36.631,35.516,36.561,35.701,36.439,35.83L36.439,35.83z M13.589,9.212
				c0.053,0.016,0.107,0.023,0.161,0.023c0.257,0,0.492-0.169,0.565-0.427l2.297-8.059c0.088-0.312-0.093-0.638-0.405-0.727
				c-0.314-0.089-0.638,0.093-0.728,0.404l-2.296,8.059C13.094,8.798,13.275,9.124,13.589,9.212L13.589,9.212z"/>
		</g>
	</g>
</g>
</svg>
